public/images/icons/arrow.svg

<svg width="40" height="40" viewBox="0 0 40 40" fill="none" xmlns="http://www.w3.org/2000/svg">
<g clip-path="url(#clip0_740_90)">
<path d="M12.9094 18.2318L19.4968 11.6449C19.8576 11.284 20.442 11.284 20.8028 11.6449L27.3901 18.2318C27.972 18.8136 27.5598 19.8087 26.7373 19.8087H23.0894L23.089 25.6867C23.089 27.3099 21.7731 28.6253 20.1504 28.6253C18.5272 28.6253 17.2117 27.3095 17.2117 25.6867V19.8087H13.5638C12.7398 19.8087 12.328 18.814 12.9095 18.2318H12.9094Z" fill="#292929"/>
<path d="M3.91844 20C3.91844 11.1327 11.1327 3.91853 19.9999 3.91853C28.8671 3.91853 36.0814 11.1328 36.0814 20C36.0814 28.8672 28.8671 36.0815 19.9999 36.0815C11.1327 36.0815 3.91844 28.8672 3.91844 20ZM0 20C-1.31715e-07 31.0453 8.95428 40 20 40C31.0453 40 40 31.0453 40 20C40 8.95466 31.0453 1.3171e-07 20 0C8.95465 -1.3172e-07 1.31714e-07 8.95465 0 20Z" fill="#292929"/>
</g>
<defs>
<clipPath id="clip0_740_90">
<rect width="40" height="40" fill="white"/>
</clipPath>
</defs>
</svg>

<svg width="40" height="40" fill="none" xmlns="http://www.w3.org/2000/svg"><g clip-path="url(#a)" fill="#292929"><path d="m12.91 18.232 6.587-6.587a.923.923 0 0 1 1.306 0l6.587 6.587c.582.582.17 1.577-.653 1.577H23.09v5.878a2.939 2.939 0 1 1-5.877 0v-5.878h-3.648c-.824 0-1.236-.995-.655-1.577Z"/><path d="M3.918 20c0-8.867 7.215-16.081 16.082-16.081S36.08 11.133 36.08 20c0 8.867-7.214 16.081-16.081 16.081-8.867 0-16.082-7.214-16.082-16.081ZM0 20c0 11.045 8.954 20 20 20 11.045 0 20-8.955 20-20S31.045 0 20 0 0 8.955 0 20Z"/></g><defs><clipPath id="a"><path fill="#fff" d="M0 0h40v40H0z"/></clipPath></defs></svg>
